sprites/streets-v8/_svg/place-of-worship-15.svg

<svg viewBox="-4 -4 23 23" width="23" height="23" data-reactid=".0.1.1.$place-of-worship-15=1svg61.0.0"><rect x="-3" y="-3" rx="10.5" ry="10.5" width="21" height="21" stroke="#fff" style="stroke-linejoin:round;stroke-miterlimit:4px;" fill="#fff" stroke-width="2" data-reactid=".0.1.1.$place-of-worship-15=1svg61.0.0.0"></rect><rect x="-3" y="-3" width="21" height="21" rx="10.5" ry="10.5" fill="#7f7874" data-reactid=".0.1.1.$place-of-worship-15=1svg61.0.0.1"></rect><path fill="#fff" d="m 7.5,0 -2,2 0,2 4,0 0,-2 z M 5.5,4.5 4,6 11,6 9.5,4.5 Z M 2,6.5 c -0.5522847,0 -1,0.4477153 -1,1 L 1,13 3,13 3,7.5 C 3,6.9477153 2.5522847,6.5 2,6.5 Z m 2,0 0,6.5 7,0 0,-6.5 z m 9,0 c -0.552285,0 -1,0.4477153 -1,1 l 0,5.5 2,0 0,-5.5 c 0,-0.5522847 -0.447715,-1 -1,-1 z" data-reactid=".0.1.1.$place-of-worship-15=1svg61.0.0.3:$place-of-worship-15=1svg-0-fill"></path></svg>

<?xml version="1.0" encoding="utf-8"?>
<!-- Generator: Adobe Illustrator 17.1.0, SVG Export Plug-In . SVG Version: 6.00 Build 0)  -->
<!DOCTYPE svg PUBLIC "-//W3C//DTD SVG 1.1//EN" "http://www.w3.org/Graphics/SVG/1.1/DTD/svg11.dtd">
<svg version="1.1"
	 id="svg2" xmlns:svg="http://www.w3.org/2000/svg" xmlns:cc="http://creativecommons.org/ns#" xmlns:dc="http://purl.org/dc/elements/1.1/" xmlns:rdf="http://www.w3.org/1999/02/22-rdf-syntax-ns#"
	 xmlns="http://www.w3.org/2000/svg" xmlns:xlink="http://www.w3.org/1999/xlink" x="0px" y="0px" width="23px" height="23px"
	 viewBox="0 0 23 23" enable-background="new 0 0 23 23" xml:space="preserve">
<ellipse id="ellipse4" fill="#FFFFFF" cx="11.5" cy="11.5" rx="11.5" ry="11.5"/>
<ellipse id="ellipse6" fill="#A9A199" cx="11.5" cy="11.5" rx="10.5" ry="10.5"/>
<g id="g8" transform="translate(4,4)">
	<path id="path9064" fill="#FFFFFF" d="M7.5,0l-2,2v2h4V2L7.5,0z M5.5,4.5L4,6h7L9.5,4.5H5.5z M2,6.5c-0.6,0-1,0.4-1,1V13h2V7.5
		C3,6.9,2.6,6.5,2,6.5z M4,6.5V13h7V6.5H4z M13,6.5c-0.6,0-1,0.4-1,1V13h2V7.5C14,6.9,13.6,6.5,13,6.5z"/>
</g>
</svg>
